X: 402
T: Mr Fletcher's Reel
C: by J.F.
R: reel
B: William Christie's "A Collection of Strathspeys, Reels, Hornpipes, Waltzes, &c."
S: https://digital.nls.uk/special-collections-of-printed-music/archive/120545033
Z: 2022 John Chambers <jc:trillian.mit.edu>
M: C|
L: 1/8
K: G
%%slurgraces yes
%%graceslurs yes
% = = = = = = = = = =
V: 1 staves=2
D |\
TG2BG {B}A2FD | G2Bc (de).d.B | ~G2BG {B}TA2FD | (FD).E.F [G3B,3] :| B | (dB).e.^c ~d2B=c | dBe^c dB-TB>=c |
(dB)e^c ~d2dA | FDEF ~G3B || (dB)e^c ~d2B=c | (dB).e.^c dB-TB>=c | dBec dBbg | (fe).e.f g2g :|
% = = = = = = = = = =
% Voice 2 preserves the staff layout in the book.
V: 2 clef=bass middle=d
z |\
G2g2 f2d2 | B2g2 b2g2 | G2g2 f2d2 | D2d2 G2g :| z | g2e2 f2g2 | g2a2 b2g2 |
g2e2 [d2f2][d2f2] | D2c2 B2G2 || g2e2 f2g2 | g2a2 b2g2 | g2c'2 b2g2 | [d2d'2][d2c'2] [g2b2][Gg] |]
% = = = = = = = = = =
